svg/material-icons/piano_off/materialiconstwotone/20px.svg

<svg xmlns="http://www.w3.org/2000/svg" width="20" height="20" viewBox="0 0 20 20"><path d="M7 15.5H4.5V6.62L6 8.12v3.38c0 .28.22.5.5.5H7v3.5zm1 0V12h.5c.28 0 .5-.22.5-.5v-.38l3 3v1.38H8zm3-6.62V4.5H9v2.38l2 2zm4.5 4.5V4.5H14v7c0 .11-.04.2-.1.28l1.6 1.6z" opacity=".3"/><path d="M17.07 17.07 2.93 2.93 1.87 3.99 3 5.12V15.5c0 .83.67 1.5 1.5 1.5h10.38l1.13 1.13 1.06-1.06zM7 15.5H4.5V6.62L6 8.12v3.38c0 .28.22.5.5.5H7v3.5zm1 0V12h.5c.28 0 .5-.22.5-.5v-.38l3 3v1.38H8zM5.12 3H15.5c.83 0 1.5.67 1.5 1.5v10.38l-1.5-1.5V4.5H14v7c0 .11-.04.2-.1.28L11 8.88V4.5H9v2.38L5.12 3z"/></svg>

<svg xmlns="http://www.w3.org/2000/svg" enable-background="new 0 0 20 20" height="20" viewBox="0 0 20 20" width="20"><rect fill="none" height="20" width="20"/><g opacity=".3"><path d="M7,15.5H4.5V6.62L6,8.12v3.38C6,11.78,6.22,12,6.5,12H7V15.5z M8,15.5V12h0.5C8.78,12,9,11.78,9,11.5v-0.38l3,3v1.38H8z M11,8.88V4.5H9v2.38L11,8.88z M15.5,13.38V4.5H14v7c0,0.11-0.04,0.2-0.1,0.28L15.5,13.38z"/></g><g><path d="M17.07,17.07L2.93,2.93L1.87,3.99L3,5.12V15.5C3,16.33,3.67,17,4.5,17h10.38l1.13,1.13L17.07,17.07z M7,15.5H4.5V6.62 L6,8.12v3.38C6,11.78,6.22,12,6.5,12H7V15.5z M8,15.5V12h0.5C8.78,12,9,11.78,9,11.5v-0.38l3,3v1.38H8z M5.12,3H15.5 C16.33,3,17,3.67,17,4.5v10.38l-1.5-1.5V4.5H14v7c0,0.11-0.04,0.2-0.1,0.28L11,8.88V4.5H9v2.38L5.12,3z"/></g></svg>
